Sites/UniverseChariot/app/img/dest/order/image(1).svg

<svg width="151" height="105" viewBox="0 0 151 105" fill="none" xmlns="http://www.w3.org/2000/svg">
<path d="M138.371 41.94H98.4029V11.976M138.371 41.94L148 53.82V85.104H131.697M138.371 41.94L124.125 11.976H98.4029M9.62923 61.344H37.3298M0 41.94H48.8057M8.44207 22.404H56.4563M98.4029 11.976V3H15.8289V85.104H32.6261M115.683 69.132C92.7423 69.1266 94.461 101.992 115.023 102M115.683 69.132C126.944 69.132 131.949 77.0439 131.697 85.104M115.683 69.132C104.422 69.132 99.0987 77.0439 99.0277 85.104M115.023 102C125.505 102 131.435 93.4721 131.697 85.104M115.023 102C104.542 102 98.9541 93.4721 99.0277 85.104M32.6261 85.104C32.6466 77.0439 37.8685 69.132 48.8057 69.132C59.7429 69.132 64.9648 77.0439 64.9853 85.104M32.6261 85.104C32.6047 93.4721 38.1897 102 48.8057 102C59.4217 102 65.0067 93.4721 64.9853 85.104M99.0277 85.104H64.9853" stroke="white" stroke-width="6"/>
</svg>

<svg width="151" height="105" fill="none" xmlns="http://www.w3.org/2000/svg"><path d="M138.371 41.94H98.403V11.976M138.37 41.94L148 53.82v31.284h-16.303m6.674-43.164l-14.246-29.964H98.403M9.629 61.344h27.7M0 41.94h48.806M8.442 22.404h48.014m41.947-10.428V3H15.829v82.104h16.797m83.057-15.972c-22.94-.005-21.222 32.86-.66 32.868m.66-32.868c11.261 0 16.266 7.912 16.014 15.972m-16.014-15.972c-11.261 0-16.584 7.912-16.655 15.972M115.023 102c10.482 0 16.412-8.528 16.674-16.896M115.023 102c-10.481 0-16.069-8.528-15.995-16.896m-66.402 0c.02-8.06 5.242-15.972 16.18-15.972 10.937 0 16.159 7.912 16.18 15.972m-32.36 0C32.605 93.472 38.19 102 48.806 102s16.2-8.528 16.18-16.896m34.042 0H64.985" stroke="#fff" stroke-width="6"/></svg>
